humanity-icon-theme/Humanity/places/24/gnome-fs-directory-accept.svg

<?xml version="1.0" encoding="UTF-8" standalone="no"?>
<!-- Created with Inkscape (http://www.inkscape.org/) -->

<svg
   xmlns:svg="http://www.w3.org/2000/svg"
   xmlns="http://www.w3.org/2000/svg"
   xmlns:xlink="http://www.w3.org/1999/xlink"
   version="1.0"
   width="24"
   height="24"
   id="svg2">
  <defs
     id="defs4">
    <radialGradient
       cx="605.71429"
       cy="486.64789"
       r="117.14286"
       fx="605.71429"
       fy="486.64789"
       id="radialGradient2621"
       xlink:href="#linearGradient5060"
       gradientUnits="userSpaceOnUse"
       gradientTransform="matrix(-2.774389,0,0,1.969706,112.7623,-872.8854)" />
    <linearGradient
       id="linearGradient5060">
      <stop
         id="stop5062"
         style="stop-color:black;stop-opacity:1"
         offset="0" />
      <stop
         id="stop5064"
         style="stop-color:black;stop-opacity:0"
         offset="1" />
    </linearGradient>
    <radialGradient
       cx="605.71429"
       cy="486.64789"
       r="117.14286"
       fx="605.71429"
       fy="486.64789"
       id="radialGradient2619"
       xlink:href="#linearGradient5060"
       gradientUnits="userSpaceOnUse"
       gradientTransform="matrix(2.774389,0,0,1.969706,-1891.633,-872.8854)" />
    <linearGradient
       id="linearGradient5048">
      <stop
         id="stop5050"
         style="stop-color:black;stop-opacity:0"
         offset="0" />
      <stop
         id="stop5056"
         style="stop-color:black;stop-opacity:1"
         offset="0.5" />
      <stop
         id="stop5052"
         style="stop-color:black;stop-opacity:0"
         offset="1" />
    </linearGradient>
    <linearGradient
       x1="302.85715"
       y1="366.64789"
       x2="302.85715"
       y2="609.50507"
       id="linearGradient2617"
       xlink:href="#linearGradient5048"
       gradientUnits="userSpaceOnUse"
       gradientTransform="matrix(2.774389,0,0,1.969706,-1892.179,-872.8854)" />
    <linearGradient
       id="linearGradient5157">
      <stop
         id="stop5159"
         style="stop-color:#c1c1c1;stop-opacity:1"
         offset="0" />
      <stop
         id="stop5161"
         style="stop-color:#909090;stop-opacity:1"
         offset="1" />
    </linearGradient>
    <linearGradient
       x1="9.8763561"
       y1="2.6014566"
       x2="9.8763561"
       y2="23.061668"
       id="linearGradient2458"
       xlink:href="#linearGradient5157"
       gradientUnits="userSpaceOnUse"
       gradientTransform="translate(0.036304,0)" />
    <linearGradient
       id="linearGradient11111">
      <stop
         id="stop11113"
         style="stop-color:white;stop-opacity:1"
         offset="0" />
      <stop
         id="stop11115"
         style="stop-color:#cdcdcd;stop-opacity:1"
         offset="0.91013825" />
      <stop
         id="stop11117"
         style="stop-color:#a1a1a1;stop-opacity:1"
         offset="1" />
    </linearGradient>
    <linearGradient
       x1="-28.531403"
       y1="17.955765"
       x2="-28.531403"
       y2="37.502914"
       id="linearGradient2456"
       xlink:href="#linearGradient11111"
       gradientUnits="userSpaceOnUse"
       gradientTransform="translate(34.414308,-14.501322)" />
    <linearGradient
       id="linearGradient3390-178-986-453">
      <stop
         id="stop3624"
         style="stop-color:#bb5e12;stop-opacity:1"
         offset="0" />
      <stop
         id="stop3626"
         style="stop-color:#cd8033;stop-opacity:1"
         offset="1" />
    </linearGradient>
    <linearGradient
       x1="9.7045717"
       y1="20.882006"
       x2="9.7045717"
       y2="4.3030405"
       id="linearGradient2446"
       xlink:href="#linearGradient3390-178-986-453"
       gradientUnits="userSpaceOnUse"
       gradientTransform="matrix(0.9945751,0,0,0.7440584,-0.302963,6.9687931)" />
    <linearGradient
       id="linearGradient7012-661-145-733-759-865-745-661-970-94">
      <stop
         id="stop3618"
         style="stop-color:#edd563;stop-opacity:1"
         offset="0" />
      <stop
         id="stop3620"
         style="stop-color:#e08223;stop-opacity:1"
         offset="1" />
    </linearGradient>
    <radialGradient
       cx="7.8185525"
       cy="8.5608768"
       r="11.268134"
       fx="7.8185525"
       fy="8.5608768"
       id="radialGradient2444"
       xlink:href="#linearGradient7012-661-145-733-759-865-745-661-970-94"
       gradientUnits="userSpaceOnUse"
       gradientTransform="matrix(1.6899516,0,0,0.7807412,-5.412667,6.4032019)" />
    <linearGradient
       id="linearGradient3752">
      <stop
         id="stop3754"
         style="stop-color:white;stop-opacity:1"
         offset="0" />
      <stop
         id="stop3760"
         style="stop-color:white;stop-opacity:1"
         offset="0.84754151" />
      <stop
         id="stop3756"
         style="stop-color:white;stop-opacity:0"
         offset="1" />
    </linearGradient>
    <radialGradient
       cx="4.02005"
       cy="5.5926585"
       r="10.273108"
       fx="4.02005"
       fy="5.5926585"
       id="radialGradient2441"
       xlink:href="#linearGradient3752"
       gradientUnits="userSpaceOnUse"
       gradientTransform="matrix(-0.01680222,1.0430854,-1.79662,-0.01619728,14.188571,7.2971049)" />
    <linearGradient
       id="linearGradient8265-821-176-38-919-66-249">
      <stop
         id="stop2687"
         style="stop-color:white;stop-opacity:0.27450982"
         offset="0" />
      <stop
         id="stop2689"
         style="stop-color:white;stop-opacity:0.07843138"
         offset="1" />
    </linearGradient>
    <linearGradient
       x1="18.03083"
       y1="16.407909"
       x2="20.054544"
       y2="24.627615"
       id="linearGradient2438"
       xlink:href="#linearGradient8265-821-176-38-919-66-249"
       gradientUnits="userSpaceOnUse"
       gradientTransform="matrix(0.4450331,0,0,0.3010162,2.855509,8.5638449)" />
  </defs>
  <g
     id="layer1">
    <g
       transform="matrix(0.5459263,0,0,0.5168524,-0.965732,-0.578182)"
       id="g3490"
       style="stroke-width:1.88256383;stroke-miterlimit:4;stroke-dasharray:none">
      <g
         transform="matrix(0.02165152,0,0,0.01485743,43.0076,42.68539)"
         id="g5022"
         style="stroke-width:104.96237946;stroke-miterlimit:4;stroke-dasharray:none;display:inline">
        <rect
           width="1339.6335"
           height="478.35718"
           x="-1559.2523"
           y="-150.69685"
           id="rect2527"
           style="opacity:0.40206185;fill:url(#linearGradient2617);fill-opacity:1;fill-rule:nonzero;stroke:none;stroke-width:104.96237946;marker:none;visibility:visible;display:inline;overflow:visible" />
        <path
           d="m -219.61876,-150.68038 c 0,0 0,478.33079 0,478.33079 142.874166,0.90045 345.40022,-107.16966 345.40014,-239.196175 0,-132.026537 -159.436816,-239.134595 -345.40014,-239.134615 z"
           id="path2529"
           style="opacity:0.40206185;fill:url(#radialGradient2619);fill-opacity:1;fill-rule:nonzero;stroke:none;stroke-width:104.96237946;marker:none;visibility:visible;display:inline;overflow:visible" />
        <path
           d="m -1559.2523,-150.68038 c 0,0 0,478.33079 0,478.33079 -142.8742,0.90045 -345.4002,-107.16966 -345.4002,-239.196175 0,-132.026537 159.4368,-239.134595 345.4002,-239.134615 z"
           id="path2531"
           style="opacity:0.40206185;fill:url(#radialGradient2621);fill-opacity:1;fill-rule:nonzero;stroke:none;stroke-width:104.96237946;marker:none;visibility:visible;display:inline;overflow:visible" />
      </g>
    </g>
    <path
       d="m 0.713585,2.569495 c -0.085539,0 -0.158869,0.092747 -0.158869,0.188543 0,5.86916 -0.043076,12.244089 -0.049143,18.224722 0.029084,0.895035 0.537241,1.505142 0.889665,1.508342 1.012736,0.0092 0.539272,-0.004 1.048535,0 6.470333,-0.0161 13.578917,-0.07817 20.049248,-0.09427 0.05421,0.0069 -1.476715,-0.107725 -1.461594,-1.445495 C 21.031428,16.27839 20.52938,9.764345 20.52938,5.091396 20.52938,4.904518 20.51394,4.80051 20.49761,4.714311 20.485,4.647748 20.46891,4.615441 20.43406,4.588616 20.4062,4.564165 20.37951,4.531573 20.33874,4.525768 l -8.820139,0 c -0.815316,0 -1.002056,-1.991963 -2.21369,-1.991963 l -8.591326,0.03569 z"
       id="path3496"
       style="fill:url(#linearGradient2456);fill-opacity:1;stroke:url(#linearGradient2458);stroke-width:1.01114547;stroke-linecap:round;stroke-linejoin:round;stroke-miterlimit:4;stroke-opacity:1;stroke-dasharray:none;display:inline" />
    <rect
       width="7"
       height="1"
       rx="0.53846157"
       ry="0.5"
       x="2"
       y="4"
       id="rect2545"
       style="fill:#edbd74;fill-opacity:1;fill-rule:nonzero;stroke:none;stroke-width:1;marker:none;visibility:visible;display:block;overflow:visible;enable-background:accumulate" />
    <path
       d="m 3.535658,10.581714 c 10.569902,0 13.030444,3.44e-4 19.993505,-0.0206 0,1.174875 0.258156,12 -0.484112,12 -0.714048,0 -14.045651,-0.07059 -21.00871,-0.04964 1.471684,0 1.499317,-0.465888 1.499317,-11.929758 z"
       id="path3498"
       style="fill:url(#radialGradient2444);fill-opacity:1;stroke:url(#linearGradient2446);stroke-width:0.99999988;stroke-linecap:round;stroke-linejoin:round;stroke-miterlimit:4;stroke-opacity:1;stroke-dasharray:none;display:inline" />
    <path
       d="m 22.975103,11.376001 c 0,0 -16.831801,0.07003 -18.396796,-0.0691 -0.082939,10.346032 -0.500948,10.80209 -0.500948,10.80209"
       id="path3211"
       style="opacity:0.4;fill:none;stroke:url(#radialGradient2441);stroke-width:0.98119497;stroke-linecap:butt;stroke-linejoin:miter;stroke-miterlimit:4;stroke-opacity:1;stroke-dasharray:none;display:inline" />
    <path
       d="m 4.2879593,10.172401 c -0.6848829,0 -1.2516556,0.383359 -1.2516556,0.846607 l 0,4.81626 c 0.00262,0.08616 0.066052,0.184396 0.1668874,0.244576 0.1008345,0.06018 0.2297237,0.08557 0.3754967,0.07525 0.00463,8e-5 0.00927,8e-5 0.013907,0 L 23.619085,14.010357 c 0.232206,-0.02477 0.413972,-0.160842 0.417218,-0.319829 l 0,-2.67152 c 0,-0.463248 -0.566773,-0.846607 -1.251655,-0.846607 l -18.4966887,0 z"
       id="path2608"
       style="fill:url(#linearGradient2438);fill-opacity:1;fill-rule:evenodd;stroke:none" />
  </g>
</svg>

<?xml version="1.0" encoding="UTF-8" standalone="no"?>
<!-- Created with Inkscape (http://www.inkscape.org/) -->
<svg
   xmlns:svg="http://www.w3.org/2000/svg"
   xmlns="http://www.w3.org/2000/svg"
   xmlns:xlink="http://www.w3.org/1999/xlink"
   version="1.0"
   width="24"
   height="24"
   id="svg3272">
  <defs
     id="defs3274">
    <linearGradient
       x1="18.03083"
       y1="16.407909"
       x2="20.054544"
       y2="24.627615"
       id="linearGradient2438"
       xlink:href="#linearGradient8265-821-176-38-919-66-249"
       gradientUnits="userSpaceOnUse"
       gradientTransform="matrix(0.4450331,0,0,0.3010162,2.855509,8.5638449)" />
    <radialGradient
       cx="4.02005"
       cy="5.5926585"
       r="10.273108"
       fx="4.02005"
       fy="5.5926585"
       id="radialGradient2441"
       xlink:href="#linearGradient3752"
       gradientUnits="userSpaceOnUse"
       gradientTransform="matrix(-1.680222e-2,1.0430854,-1.79662,-1.619728e-2,14.188571,7.2971049)" />
    <linearGradient
       x1="9.7045717"
       y1="20.882006"
       x2="9.7045717"
       y2="4.3030405"
       id="linearGradient2446"
       xlink:href="#linearGradient3390-178-986-453"
       gradientUnits="userSpaceOnUse"
       gradientTransform="matrix(0.9945751,0,0,0.7440584,-0.302963,6.9687931)" />
    <radialGradient
       cx="7.8185525"
       cy="8.5608768"
       r="11.268134"
       fx="7.8185525"
       fy="8.5608768"
       id="radialGradient2444"
       xlink:href="#linearGradient7012-661-145-733-759-865-745-661-970-94"
       gradientUnits="userSpaceOnUse"
       gradientTransform="matrix(1.6899516,0,0,0.7807412,-5.412667,6.4032019)" />
    <linearGradient
       x1="9.8763561"
       y1="2.6014566"
       x2="9.8763561"
       y2="23.061668"
       id="linearGradient2458"
       xlink:href="#linearGradient5157"
       gradientUnits="userSpaceOnUse"
       gradientTransform="translate(3.6304e-2,0)" />
    <linearGradient
       x1="-28.531403"
       y1="17.955765"
       x2="-28.531403"
       y2="37.502914"
       id="linearGradient2456"
       xlink:href="#linearGradient11111"
       gradientUnits="userSpaceOnUse"
       gradientTransform="translate(34.414308,-14.501322)" />
    <radialGradient
       cx="605.71429"
       cy="486.64789"
       r="117.14286"
       fx="605.71429"
       fy="486.64789"
       id="radialGradient2621"
       xlink:href="#linearGradient5060"
       gradientUnits="userSpaceOnUse"
       gradientTransform="matrix(-2.774389,0,0,1.969706,112.7623,-872.8854)" />
    <radialGradient
       cx="605.71429"
       cy="486.64789"
       r="117.14286"
       fx="605.71429"
       fy="486.64789"
       id="radialGradient2619"
       xlink:href="#linearGradient5060"
       gradientUnits="userSpaceOnUse"
       gradientTransform="matrix(2.774389,0,0,1.969706,-1891.633,-872.8854)" />
    <linearGradient
       x1="302.85715"
       y1="366.64789"
       x2="302.85715"
       y2="609.50507"
       id="linearGradient2617"
       xlink:href="#linearGradient5048"
       gradientUnits="userSpaceOnUse"
       gradientTransform="matrix(2.774389,0,0,1.969706,-1892.179,-872.8854)" />
    <linearGradient
       x1="18.03083"
       y1="16.407909"
       x2="20.054544"
       y2="24.627615"
       id="linearGradient3404"
       xlink:href="#linearGradient8265-821-176-38-919-66-249"
       gradientUnits="userSpaceOnUse" />
    <linearGradient
       id="linearGradient3752">
      <stop
         id="stop3754"
         style="stop-color:#ffffff;stop-opacity:1"
         offset="0" />
      <stop
         id="stop3760"
         style="stop-color:#ffffff;stop-opacity:1"
         offset="0.84754151" />
      <stop
         id="stop3756"
         style="stop-color:#ffffff;stop-opacity:0"
         offset="1" />
    </linearGradient>
    <radialGradient
       cx="4.02005"
       cy="5.5926585"
       r="10.273108"
       fx="4.02005"
       fy="5.5926585"
       id="radialGradient3402"
       xlink:href="#linearGradient3752"
       gradientUnits="userSpaceOnUse"
       gradientTransform="matrix(-1.680222e-2,1.3942814,-1.79662,-2.165073e-2,-5.3658054,-19.339419)" />
    <linearGradient
       x1="9.7045717"
       y1="20.882006"
       x2="9.7045717"
       y2="4.3030405"
       id="linearGradient3400"
       xlink:href="#linearGradient3390-178-986-453"
       gradientUnits="userSpaceOnUse"
       gradientTransform="matrix(0.9945751,0,0,0.9945751,-19.857339,-19.77827)" />
    <radialGradient
       cx="7.8185525"
       cy="8.5608768"
       r="11.268134"
       fx="7.8185525"
       fy="8.5608768"
       id="radialGradient3398"
       xlink:href="#linearGradient7012-661-145-733-759-865-745-661-970-94"
       gradientUnits="userSpaceOnUse"
       gradientTransform="matrix(1.6899516,0,0,1.0436086,-24.967043,-20.53429)" />
    <linearGradient
       id="linearGradient5157">
      <stop
         id="stop5159"
         style="stop-color:#c1c1c1;stop-opacity:1"
         offset="0" />
      <stop
         id="stop5161"
         style="stop-color:#909090;stop-opacity:1"
         offset="1" />
    </linearGradient>
    <linearGradient
       x1="9.8763561"
       y1="2.6014566"
       x2="9.8763561"
       y2="23.061668"
       id="linearGradient3396"
       xlink:href="#linearGradient5157"
       gradientUnits="userSpaceOnUse"
       gradientTransform="translate(-19.518072,-21.496043)" />
    <linearGradient
       id="linearGradient11111">
      <stop
         id="stop11113"
         style="stop-color:#ffffff;stop-opacity:1"
         offset="0" />
      <stop
         id="stop11115"
         style="stop-color:#cdcdcd;stop-opacity:1"
         offset="0.91013825" />
      <stop
         id="stop11117"
         style="stop-color:#a1a1a1;stop-opacity:1"
         offset="1" />
    </linearGradient>
    <linearGradient
       x1="-28.531403"
       y1="17.955765"
       x2="-28.531403"
       y2="37.502914"
       id="linearGradient3394"
       xlink:href="#linearGradient11111"
       gradientUnits="userSpaceOnUse"
       gradientTransform="translate(14.859932,-35.997365)" />
    <radialGradient
       cx="605.71429"
       cy="486.64789"
       r="117.14286"
       fx="605.71429"
       fy="486.64789"
       id="radialGradient3392"
       xlink:href="#linearGradient5060"
       gradientUnits="userSpaceOnUse"
       gradientTransform="matrix(-2.774389,0,0,1.969706,112.7623,-872.8854)" />
    <linearGradient
       id="linearGradient5060">
      <stop
         id="stop5062"
         style="stop-color:#000000;stop-opacity:1"
         offset="0" />
      <stop
         id="stop5064"
         style="stop-color:#000000;stop-opacity:0"
         offset="1" />
    </linearGradient>
    <radialGradient
       cx="605.71429"
       cy="486.64789"
       r="117.14286"
       fx="605.71429"
       fy="486.64789"
       id="radialGradient3390"
       xlink:href="#linearGradient5060"
       gradientUnits="userSpaceOnUse"
       gradientTransform="matrix(2.774389,0,0,1.969706,-1891.633,-872.8854)" />
    <linearGradient
       id="linearGradient5048">
      <stop
         id="stop5050"
         style="stop-color:#000000;stop-opacity:0"
         offset="0" />
      <stop
         id="stop5056"
         style="stop-color:#000000;stop-opacity:1"
         offset="0.5" />
      <stop
         id="stop5052"
         style="stop-color:#000000;stop-opacity:0"
         offset="1" />
    </linearGradient>
    <linearGradient
       x1="302.85715"
       y1="366.64789"
       x2="302.85715"
       y2="609.50507"
       id="linearGradient3388"
       xlink:href="#linearGradient5048"
       gradientUnits="userSpaceOnUse"
       gradientTransform="matrix(2.774389,0,0,1.969706,-1892.179,-872.8854)" />
    <linearGradient
       id="linearGradient3390-178-986-453">
      <stop
         id="stop3624"
         style="stop-color:#bb2b12;stop-opacity:1"
         offset="0" />
      <stop
         id="stop3626"
         style="stop-color:#cd7233;stop-opacity:1"
         offset="1" />
    </linearGradient>
    <linearGradient
       id="linearGradient7012-661-145-733-759-865-745-661-970-94">
      <stop
         id="stop3618"
         style="stop-color:#edb763;stop-opacity:1"
         offset="0" />
      <stop
         id="stop3270"
         style="stop-color:#de7f32;stop-opacity:1"
         offset="0.5" />
      <stop
         id="stop3620"
         style="stop-color:#d24413;stop-opacity:1"
         offset="1" />
    </linearGradient>
    <linearGradient
       id="linearGradient8265-821-176-38-919-66-249">
      <stop
         id="stop2687"
         style="stop-color:#ffffff;stop-opacity:0.27450982"
         offset="0" />
      <stop
         id="stop2689"
         style="stop-color:#ffffff;stop-opacity:0.07843138"
         offset="1" />
    </linearGradient>
  </defs>
  <g
     id="layer1">
    <g
       transform="matrix(0.5459263,0,0,0.5168524,-0.965732,-0.578182)"
       id="g7902"
       style="stroke-width:1.88256383;stroke-miterlimit:4;stroke-dasharray:none">
      <g
         transform="matrix(2.165152e-2,0,0,1.485743e-2,43.0076,42.68539)"
         id="g7904"
         style="stroke-width:104.96237946;stroke-miterlimit:4;stroke-dasharray:none;display:inline">
        <rect
           width="1339.6335"
           height="478.35718"
           x="-1559.2523"
           y="-150.69685"
           id="rect7906"
           style="opacity:0.40206185;fill:url(#linearGradient2617);fill-opacity:1;fill-rule:nonzero;stroke:none;stroke-width:104.96237946;marker:none;visibility:visible;display:inline;overflow:visible" />
        <path
           d="M -219.61876,-150.68038 C -219.61876,-150.68038 -219.61876,327.65041 -219.61876,327.65041 C -76.744594,328.55086 125.78146,220.48075 125.78138,88.454235 C 125.78138,-43.572302 -33.655436,-150.68036 -219.61876,-150.68038 L -219.61876,-150.68038 z"
           id="path7908"
           style="opacity:0.40206185;fill:url(#radialGradient2619);fill-opacity:1;fill-rule:nonzero;stroke:none;stroke-width:104.96237946;marker:none;visibility:visible;display:inline;overflow:visible" />
        <path
           d="M -1559.2523,-150.68038 C -1559.2523,-150.68038 -1559.2523,327.65041 -1559.2523,327.65041 C -1702.1265,328.55086 -1904.6525,220.48075 -1904.6525,88.454235 C -1904.6525,-43.572302 -1745.2157,-150.68036 -1559.2523,-150.68038 L -1559.2523,-150.68038 z"
           id="path7910"
           style="opacity:0.40206185;fill:url(#radialGradient2621);fill-opacity:1;fill-rule:nonzero;stroke:none;stroke-width:104.96237946;marker:none;visibility:visible;display:inline;overflow:visible" />
      </g>
    </g>
    <path
       d="M 0.713585,2.569495 C 0.628046,2.569495 0.554716,2.662242 0.554716,2.758038 C 0.554716,8.627198 0.51164,15.002127 0.505573,20.98276 C 0.534657,21.877795 1.042814,22.487902 1.395238,22.491102 C 2.407974,22.500302 1.93451,22.487102 2.443773,22.491102 C 8.914106,22.475002 16.02269,22.412932 22.493021,22.396832 C 22.547231,22.403732 21.016306,22.289107 21.031427,20.951337 C 21.031428,16.27839 20.52938,9.764345 20.52938,5.091396 C 20.52938,4.904518 20.51394,4.80051 20.49761,4.714311 C 20.485,4.647748 20.46891,4.615441 20.43406,4.588616 C 20.4062,4.564165 20.37951,4.531573 20.33874,4.525768 L 11.518601,4.525768 C 10.703285,4.525768 10.516545,2.533805 9.304911,2.533805 L 0.713585,2.569495 L 0.713585,2.569495 z"
       id="path7912"
       style="fill:url(#linearGradient2456);fill-opacity:1;stroke:url(#linearGradient2458);stroke-width:1.01114547;stroke-linecap:round;stroke-linejoin:round;stroke-miterlimit:4;stroke-dasharray:none;stroke-opacity:1;display:inline" />
    <rect
       width="7"
       height="1"
       rx="0.53846157"
       ry="0.5"
       x="2"
       y="4"
       id="rect7914"
       style="fill:#eda374;fill-opacity:1;fill-rule:nonzero;stroke:none;stroke-width:1;marker:none;visibility:visible;display:block;overflow:visible;enable-background:accumulate" />
    <path
       d="M 3.535658,10.581714 C 14.10556,10.581714 16.566102,10.582058 23.529163,10.561114 C 23.529163,11.735989 23.787319,22.561114 23.045051,22.561114 C 22.331003,22.561114 8.9994,22.490524 2.036341,22.511474 C 3.508025,22.511474 3.535658,22.045586 3.535658,10.581716 L 3.535658,10.581714 z"
       id="path7916"
       style="fill:url(#radialGradient2444);fill-opacity:1;stroke:url(#linearGradient2446);stroke-width:0.99999988;stroke-linecap:round;stroke-linejoin:round;stroke-miterlimit:4;stroke-dasharray:none;stroke-opacity:1;display:inline" />
    <path
       d="M 22.975103,11.376001 C 22.975103,11.376001 6.143302,11.446031 4.578307,11.306901 C 4.495368,21.652933 4.077359,22.108991 4.077359,22.108991"
       id="path7918"
       style="opacity:0.4;fill:none;stroke:url(#radialGradient2441);stroke-width:0.98119497;stroke-linecap:butt;stroke-linejoin:miter;stroke-miterlimit:4;stroke-dasharray:none;stroke-opacity:1;display:inline" />
    <path
       d="M 4.2879593,10.172401 C 3.6030764,10.172401 3.0363037,10.55576 3.0363037,11.019008 L 3.0363037,15.835268 C 3.0389237,15.921428 3.1023557,16.019664 3.2031911,16.079844 C 3.3040256,16.140024 3.4329148,16.165414 3.5786878,16.155094 C 3.5833178,16.155174 3.5879578,16.155174 3.5925948,16.155094 L 23.619085,14.010357 C 23.851291,13.985587 24.033057,13.849515 24.036303,13.690528 L 24.036303,11.019008 C 24.036303,10.55576 23.46953,10.172401 22.784648,10.172401 L 4.2879593,10.172401 L 4.2879593,10.172401 z"
       id="path7920"
       style="fill:url(#linearGradient2438);fill-opacity:1;fill-rule:evenodd;stroke:none" />
  </g>
</svg>
